src/icons/svg/short-message.svg

<?xml version="1.0" encoding="UTF-8"?>
<svg width="40px" height="32px" viewBox="0 0 40 32" version="1.1" xmlns="http://www.w3.org/2000/svg"
>
    <polyline id="路径" points="23.34375 25.1964286 31.9330357 31.2857143 30.4508929 23.6964286"></polyline>
    <path d="M36.5133929,2.36607143 L28.7901786,2.36607143 L28.7901786,5.85267857 L34.7723214,5.85267857 C35.7366071,5.85267857 36.5178571,6.63392857 36.5178571,7.59375 L36.5178571,21.6651786 C36.5178571,22.6294643 35.7366071,23.40625 34.7723214,23.40625 L16.5892857,23.40625 C15.8214286,23.40625 15.1696429,22.9107143 14.9375,22.2232143 L11.3571429,22.2232143 L11.3571429,23.4107143 C11.3571429,25.3348214 12.9196429,26.8973214 14.84375,26.8973214 L36.5133929,26.8973214 C38.4375,26.8973214 40,25.3348214 40,23.4107143 L40,5.85267857 C40,3.92857143 38.4375,2.36607143 36.5133929,2.36607143 Z"
          id="路径"></path>
    <path d="M21.6785714,-1.62409768e-15 L3.52232143,-1.62409768e-15 C1.57589286,-1.62409768e-15 0,1.5625 0,3.49107143 L0,15.4598214 C0,17.3883929 1.57589286,18.9508929 3.52232143,18.9508929 L21.6785714,18.9508929 C23.625,18.9508929 25.2008929,17.3883929 25.2008929,15.4598214 L25.2008929,3.49107143 C25.1964286,1.5625 23.6205357,-1.62409768e-15 21.6785714,-1.62409768e-15 L21.6785714,-1.62409768e-15 Z M21.6785714,13.7142857 C21.6785714,14.6785714 20.8883929,15.4598214 19.9196429,15.4598214 L5.28125,15.4598214 C4.30803571,15.4598214 3.52232143,14.6785714 3.52232143,13.7142857 L3.52232143,5.23660714 C3.52232143,4.27232143 4.3125,3.49107143 5.28125,3.49107143 L19.9196429,3.49107143 C20.8928571,3.49107143 21.6785714,4.27232143 21.6785714,5.23660714 L21.6785714,13.7142857 Z"
          id="形状"></path>
    <polyline id="路径" points="14.9285714 17.2455357 6.25892857 23.3482143 7.75446429 15.7455357"></polyline>
</svg>

<svg width="40" height="32" xmlns="http://www.w3.org/2000/svg"><path d="M23.344 25.196l8.589 6.09-1.482-7.59"/><path d="M36.513 2.366H28.79v3.487h5.982c.965 0 1.746.78 1.746 1.74v14.072c0 .964-.781 1.741-1.746 1.741H16.59c-.768 0-1.42-.495-1.651-1.183h-3.58v1.188a3.489 3.489 0 0 0 3.486 3.486h21.67A3.489 3.489 0 0 0 40 23.411V5.853a3.489 3.489 0 0 0-3.487-3.487z"/><path d="M21.679 0H3.522C1.576 0 0 1.563 0 3.491V15.46c0 1.928 1.576 3.49 3.522 3.49H21.68c1.946 0 3.522-1.562 3.522-3.49V3.49C25.196 1.562 23.62 0 21.679 0zm0 13.714c0 .965-.79 1.746-1.76 1.746H5.282a1.751 1.751 0 0 1-1.759-1.746V5.237c0-.965.79-1.746 1.76-1.746H19.92c.973 0 1.759.781 1.759 1.746v8.477z"/><path d="M14.929 17.246l-8.67 6.102 1.495-7.602"/></svg>
